icons/line/stop-circle.svg

<svg width="24" height="24" viewBox="0 0 24 24" fill="none" xmlns="http://www.w3.org/2000/svg">
<path fill-rule="evenodd" clip-rule="evenodd" d="M4 12C4 7.58172 7.58172 4 12 4C16.4183 4 20 7.58172 20 12C20 16.4183 16.4183 20 12 20C7.58172 20 4 16.4183 4 12ZM12 2C6.47715 2 2 6.47715 2 12C2 17.5228 6.47715 22 12 22C17.5228 22 22 17.5228 22 12C22 6.47715 17.5228 2 12 2ZM10 8C8.89543 8 8 8.89543 8 10V14C8 15.1046 8.89543 16 10 16H14C15.1046 16 16 15.1046 16 14V10C16 8.89543 15.1046 8 14 8H10ZM10 10H14V14H10V10Z" fill="currentColor"/>
</svg>

<svg width="24" height="24" fill="none" xmlns="http://www.w3.org/2000/svg"><path fill-rule="evenodd" clip-rule="evenodd" d="M4 12a8 8 0 1116 0 8 8 0 01-16 0zm8-10C6.477 2 2 6.477 2 12s4.477 10 10 10 10-4.477 10-10S17.523 2 12 2zm-2 6a2 2 0 00-2 2v4a2 2 0 002 2h4a2 2 0 002-2v-4a2 2 0 00-2-2h-4zm0 2h4v4h-4v-4z" fill="currentColor"/></svg>
